src/assets/img/full_logo_vertical.svg

<svg fill="none" height="75" viewBox="0 0 98 75" width="98" xmlns="http://www.w3.org/2000/svg" xmlns:xlink="http://www.w3.org/1999/xlink"><linearGradient id="a" gradientUnits="userSpaceOnUse" x1="34.0673" x2="70.3233" y1="35.179" y2="-1.0769"><stop offset="0" stop-color="#5565f7"/><stop offset="1" stop-color="#9ea7fa"/></linearGradient><clipPath id="b"><path d="m0 0h98v74.3979h-98z"/></clipPath><g clip-path="url(#b)"><g fill="#fff"><path d="m7.69808 62.6807-7.955892 11.3403h3.689222l6.22356-8.9843c.76993 1.3194 1.63613 2.7016 2.53433 3.9895l3.5609 4.9948h3.7213l-7.8596-11.3717 7.7634-11.3403h-3.6251l-6.12731 9.0471c-.67368-1.2566-1.44361-2.5131-2.47018-3.9895l-3.62506-5.0576h-3.753382z"/><path d="m26.3404 74.021h2.9835l6.5444-15.3613h-3.1439l-3.4967 8.576c-.5454 1.3507-1.0587 2.6701-1.3153 3.6754-.2567-.9425-.7058-2.2304-1.2512-3.6754l-3.4325-8.576h-3.2081z"/><path d="m44.9575 74.398c3.8817 0 6.5123-1.8534 7.2822-5.1519h-2.8231c-.5133 1.7592-2.0531 2.7016-4.395 2.7016-2.9834 0-4.7157-1.7906-4.9403-5.0262l12.1263-.0314v-1.0995c0-4.5549-2.9193-7.5706-7.3784-7.5706-4.5554 0-7.6672 3.3298-7.6672 8.1361 0 4.7749 3.1759 8.0419 7.7955 8.0419zm-.1283-13.6964c2.6626 0 4.3629 1.6964 4.3629 4.2409h-9.0467c.385-2.7016 2.0532-4.2409 4.6838-4.2409z"/><path d="m65.1998 58.5341c-.6095-.1257-1.0586-.1885-1.604-.1885-2.1494 0-3.7213 1.0681-4.3629 2.6702l-.1925-2.3246h-2.823v15.3298h3.0155v-8.1361c0-2.9529 1.7644-4.6492 4.6196-4.6492h1.3473z"/><path d="m67.3866 69.5603c0 2.9214 2.3418 4.8377 6.031 4.8377 3.7213 0 6.2878-1.8534 6.2878-4.7749 0-2.2932-1.3153-3.4869-3.978-4.1152l-2.7589-.6597c-1.5398-.3769-2.3098-1.068-2.3098-2.1047 0-1.4136 1.0587-2.2303 2.9514-2.2303 1.8286 0 2.8872.9738 2.9514 2.513h2.8872c-.0641-2.9214-2.3098-4.8062-5.7423-4.8062-3.4647 0-5.9028 1.7905-5.9028 4.6178 0 2.2617 1.3153 3.6125 4.1063 4.2722l2.7589.6283c1.636.4084 2.1493 1.0366 2.1493 2.0733 0 1.4136-1.219 2.2618-3.3363 2.2618-1.989 0-3.208-.9424-3.208-2.5131z"/><path d="m90.46 74.398c3.8817 0 6.5123-1.8534 7.2822-5.1519h-2.8231c-.5133 1.7592-2.0531 2.7016-4.395 2.7016-2.9834 0-4.7157-1.7906-4.9403-5.0262l12.1263-.0314v-1.0995c0-4.5549-2.9193-7.5706-7.3784-7.5706-4.5554 0-7.6672 3.3298-7.6672 8.1361 0 4.7749 3.1759 8.0419 7.7955 8.0419zm-.1283-13.6964c2.6626 0 4.3629 1.6964 4.3629 4.2409h-9.0466c.3849-2.7016 2.0531-4.2409 4.6837-4.2409z"/></g><path clip-rule="evenodd" d="m34.7194 5.30351c7.8038-7.0714 19.7345-7.07135 27.5382.00017l-1.8192 1.81919c-6.7964-6.07163-17.1033-6.07169-23.8998-.00017zm28.9894 1.45143-1.8192 1.81919c6.0711 6.79647 6.071 17.10297-.0003 23.89927l1.8192 1.8192c7.0712-7.8036 7.0713-19.7339.0003-27.53766zm-27.1698 27.16986c6.7964 6.071 17.1027 6.071 23.899-.0002l1.8192 1.8192c-7.8036 7.0711-19.7338 7.0711-27.5374.0002zm-1.4513-1.4513-1.8192 1.8192c-7.0714-7.8036-7.0715-19.7342-.0003-27.53795l1.8192 1.8192c-6.0714 6.79645-6.0713 17.10325.0003 23.89955zm26.191-20.5193c-.5485-.8167-1.1837-1.5925-1.9056-2.31443-4.7823-4.78224-11.9283-5.75995-17.6771-2.93315l1.2883 2.23147c4.7623-2.26243 10.6308-1.42299 14.5721 2.51831.5595.5594 1.0564 1.1577 1.4909 1.7861zm-1.2041 3.065 2.2315-1.2883c2.827 5.7488 1.8493 12.8951-2.933 17.6774-.7221.722-1.498 1.3574-2.3149 1.906l-1.2883-2.2315c.6286-.4345 1.227-.9316 1.7865-1.4911 3.9414-3.9414 4.7808-9.8102 2.5182-14.5725zm-6.0815 17.0909c-4.7622 2.2623-10.6307 1.4228-14.5719-2.5184-.5597-.5598-1.0569-1.1584-1.4915-1.7871l-2.2315 1.2883c.5487.8171 1.1841 1.5932 1.9064 2.3154 4.7821 4.7822 11.9281 5.7599 17.6768 2.9332zm-19.3221-4.794 2.2315-1.2884c-2.262-4.7621-1.4224-10.6302 2.5187-14.5713.5595-.5595 1.1579-1.0565 1.7864-1.49101l-1.2884-2.23146c-.8168.54856-1.5926 1.18384-2.3146 1.90584-4.7821 4.78203-5.7599 11.92763-2.9336 17.67633zm21.0737-14.0488c1.5151 1.5151 2.4574 3.3862 2.8269 5.3441l-2.5766.2254c-.3077-1.3753-.9967-2.6826-2.067-3.7529-1.4111-1.4111-3.234-2.1594-5.0819-2.2448l-.2254-2.5766c2.582.0331 5.1538 1.0347 7.124 3.0048zm-9.1686-2.8269c-1.9578.3695-3.8287 1.3118-5.3438 2.8269-1.97 1.97-2.9716 4.5417-3.0047 7.1235l2.5765-.2254c.0856-1.8477.8338-3.6705 2.2448-5.0815 1.0703-1.0702 2.3774-1.7592 3.7526-2.0669zm-8.1707 11.9951c.3694 1.9579 1.3117 3.829 2.8269 5.3441 1.97 1.97 4.5417 2.9716 7.1235 3.0048l-.2254-2.5765c-1.8477-.0856-3.6705-.8339-5.0815-2.2449-1.0703-1.0703-1.7593-2.3776-2.0669-3.7529zm17.3393 5.3441c-1.5152 1.5152-3.3864 2.4575-5.3443 2.827l-.2254-2.5766c1.3754-.3076 2.6827-.9966 3.753-2.067 1.411-1.411 2.1593-3.2338 2.2449-5.0815l2.5765-.2255c-.0331 2.5819-1.0347 5.1536-3.0047 7.1236z" fill="url(#a)" fill-rule="evenodd"/></g></svg>

<svg width="98" height="75" viewBox="0 0 98 75" fill="none" xmlns="http://www.w3.org/2000/svg">
<g clip-path="url(#clip0_666_44507)">
<path d="M7.69808 62.6807L-0.257812 74.021H3.43141L9.65497 65.0367C10.4249 66.3561 11.2911 67.7383 12.1893 69.0262L15.7502 74.021H19.4715L11.6119 62.6493L19.3753 51.309H15.7502L9.62289 60.3561C8.94921 59.0995 8.17928 57.843 7.15271 56.3666L3.52765 51.309H-0.225732L7.69808 62.6807Z" fill="white"/>
<path d="M26.3404 74.021H29.3239L35.8683 58.6597H32.7244L29.2277 67.2357C28.6823 68.5864 28.169 69.9058 27.9124 70.9111C27.6557 69.9686 27.2066 68.6807 26.6612 67.2357L23.2287 58.6597H20.0206L26.3404 74.021Z" fill="white"/>
<path d="M44.9575 74.398C48.8392 74.398 51.4698 72.5446 52.2397 69.2461H49.4166C48.9033 71.0053 47.3635 71.9477 45.0216 71.9477C42.0382 71.9477 40.3059 70.1571 40.0813 66.9215L52.2076 66.8901V65.7906C52.2076 61.2357 49.2883 58.22 44.8292 58.22C40.2738 58.22 37.162 61.5498 37.162 66.3561C37.162 71.131 40.3379 74.398 44.9575 74.398ZM44.8292 60.7016C47.4918 60.7016 49.1921 62.398 49.1921 64.9425H40.1454C40.5304 62.2409 42.1986 60.7016 44.8292 60.7016Z" fill="white"/>
<path d="M65.1998 58.5341C64.5903 58.4084 64.1412 58.3456 63.5958 58.3456C61.4464 58.3456 59.8745 59.4137 59.2329 61.0158L59.0404 58.6912H56.2174V74.021H59.2329V65.8849C59.2329 62.932 60.9973 61.2357 63.8525 61.2357H65.1998V58.5341Z" fill="white"/>
<path d="M67.3866 69.5603C67.3866 72.4817 69.7284 74.398 73.4176 74.398C77.1389 74.398 79.7054 72.5446 79.7054 69.6231C79.7054 67.3299 78.3901 66.1362 75.7274 65.5079L72.9685 64.8482C71.4287 64.4713 70.6587 63.7802 70.6587 62.7435C70.6587 61.3299 71.7174 60.5132 73.6101 60.5132C75.4387 60.5132 76.4973 61.487 76.5615 63.0262H79.4487C79.3846 60.1048 77.1389 58.22 73.7064 58.22C70.2417 58.22 67.8036 60.0105 67.8036 62.8378C67.8036 65.0995 69.1189 66.4503 71.9099 67.11L74.6688 67.7383C76.3048 68.1467 76.8181 68.7749 76.8181 69.8116C76.8181 71.2252 75.5991 72.0734 73.4818 72.0734C71.4928 72.0734 70.2738 71.131 70.2738 69.5603H67.3866Z" fill="white"/>
<path d="M90.46 74.398C94.3417 74.398 96.9723 72.5446 97.7422 69.2461H94.9191C94.4058 71.0053 92.866 71.9477 90.5241 71.9477C87.5407 71.9477 85.8084 70.1571 85.5838 66.9215L97.7101 66.8901V65.7906C97.7101 61.2357 94.7908 58.22 90.3317 58.22C85.7763 58.22 82.6645 61.5498 82.6645 66.3561C82.6645 71.131 85.8404 74.398 90.46 74.398ZM90.3317 60.7016C92.9943 60.7016 94.6946 62.398 94.6946 64.9425H85.648C86.0329 62.2409 87.7011 60.7016 90.3317 60.7016Z" fill="white"/>
<path fill-rule="evenodd" clip-rule="evenodd" d="M34.7194 5.30351C42.5232 -1.76789 54.4539 -1.76784 62.2576 5.30368L60.4384 7.12287C53.642 1.05124 43.3351 1.05118 36.5386 7.1227L34.7194 5.30351ZM63.7088 6.75494L61.8896 8.57413C67.9607 15.3706 67.9606 25.6771 61.8893 32.4734L63.7085 34.2926C70.7797 26.489 70.7798 14.5587 63.7088 6.75494ZM36.539 33.9248C43.3354 39.9958 53.6417 39.9958 60.438 33.9246L62.2572 35.7438C54.4536 42.8149 42.5234 42.8149 34.7198 35.744L36.539 33.9248ZM35.0877 32.4735L33.2685 34.2927C26.1971 26.4891 26.197 14.5585 33.2682 6.75475L35.0874 8.57395C29.016 15.3704 29.0161 25.6772 35.0877 32.4735ZM61.2787 11.9542C60.7302 11.1375 60.095 10.3617 59.3731 9.63977C54.5908 4.85753 47.4448 3.87982 41.696 6.70662L42.9843 8.93809C47.7466 6.67566 53.6151 7.5151 57.5564 11.4564C58.1159 12.0158 58.6128 12.6141 59.0473 13.2425L61.2787 11.9542ZM60.0746 15.0192L62.3061 13.7309C65.1331 19.4797 64.1554 26.626 59.3731 31.4083C58.651 32.1303 57.8751 32.7657 57.0582 33.3143L55.7699 31.0828C56.3985 30.6483 56.9969 30.1512 57.5564 29.5917C61.4978 25.6503 62.3372 19.7815 60.0746 15.0192ZM53.9931 32.1101C49.2309 34.3724 43.3624 33.5329 39.4212 29.5917C38.8615 29.0319 38.3643 28.4333 37.9297 27.8046L35.6982 29.0929C36.2469 29.91 36.8823 30.6861 37.6046 31.4083C42.3867 36.1905 49.5327 37.1682 55.2814 34.3415L53.9931 32.1101ZM34.671 27.3161L36.9025 26.0277C34.6405 21.2656 35.4801 15.3975 39.4212 11.4564C39.9807 10.8969 40.5791 10.3999 41.2076 9.96539L39.9192 7.73393C39.1024 8.28249 38.3266 8.91777 37.6046 9.63977C32.8225 14.4218 31.8447 21.5674 34.671 27.3161ZM55.7447 13.2673C57.2598 14.7824 58.2021 16.6535 58.5716 18.6114L55.995 18.8368C55.6873 17.4615 54.9983 16.1542 53.928 15.0839C52.5169 13.6728 50.694 12.9245 48.8461 12.8391L48.6207 10.2625C51.2027 10.2956 53.7745 11.2972 55.7447 13.2673ZM46.5761 10.4404C44.6183 10.8099 42.7474 11.7522 41.2323 13.2673C39.2623 15.2373 38.2607 17.809 38.2276 20.3908L40.8041 20.1654C40.8897 18.3177 41.6379 16.4949 43.0489 15.0839C44.1192 14.0137 45.4263 13.3247 46.8015 13.017L46.5761 10.4404ZM38.4054 22.4355C38.7748 24.3934 39.7171 26.2645 41.2323 27.7796C43.2023 29.7496 45.774 30.7512 48.3558 30.7844L48.1304 28.2079C46.2827 28.1223 44.4599 27.374 43.0489 25.963C41.9786 24.8927 41.2896 23.5854 40.982 22.2101L38.4054 22.4355ZM55.7447 27.7796C54.2295 29.2948 52.3583 30.2371 50.4004 30.6066L50.175 28.03C51.5504 27.7224 52.8577 27.0334 53.928 25.963C55.339 24.552 56.0873 22.7292 56.1729 20.8815L58.7494 20.656C58.7163 23.2379 57.7147 25.8096 55.7447 27.7796Z" fill="url(#paint0_linear_666_44507)"/>
</g>
<defs>
<linearGradient id="paint0_linear_666_44507" x1="34.0673" y1="35.179" x2="70.3233" y2="-1.0769" gradientUnits="userSpaceOnUse">
<stop stop-color="#5565F7"/>
<stop offset="1" stop-color="#9EA7FA"/>
</linearGradient>
<clipPath id="clip0_666_44507">
<rect width="98" height="74.3979" fill="white"/>
</clipPath>
</defs>
</svg>
